teeny/solid/note.svg

<svg width="15" height="15" viewBox="0 0 15 15" fill="none" xmlns="http://www.w3.org/2000/svg">
<path fill-rule="evenodd" clip-rule="evenodd" d="M0 1.5C0 0.671573 0.671573 0 1.5 0H13.5C14.3284 0 15 0.671573 15 1.5V9H9.5C9.22386 9 9 9.22386 9 9.5V15H1.5C0.671573 15 0 14.3284 0 13.5V1.5ZM12 4H3V3H12V4Z" fill="black"/>
<path d="M10 15H10.0858C10.4836 15 10.8651 14.842 11.1464 14.5607L14.5607 11.1464C14.842 10.8651 15 10.4836 15 10.0858V10H10V15Z" fill="black"/>
</svg>

<svg viewBox="0 0 15 15" xmlns="http://www.w3.org/2000/svg"><path fill-rule="evenodd" d="M0 1.5C0 .67.67 0 1.5 0h12c.82 0 1.5.67 1.5 1.5V9H9.5c-.28 0-.5.22-.5.5V15H1.5C.67 15 0 14.32 0 13.5v-12ZM12 4H3V3h9v1Z"/><path d="M10 15h.08c.39 0 .77-.16 1.06-.44l3.41-3.42c.28-.29.43-.67.43-1.07v-.09h-5v5Z"/></svg>
